X: 1
T: Les Champs-Elysees
M: C
L: 1/8
K: E
B,|"E"(3GBG- GG "G#7/D#"(3FGF-F2|"C#m"(3EGE-E2"E7/B"(3=DGD z^B,|
"A"CE FE "E/G#"GE zE|"F#7"FF GF-"B7"F2zB,|
"E"(3GBG- GG "G#7/D#"(3FGF-F2|"C#m"(3EGE-E2"E7/B"(3=DGD z^B,|
"A"CE FE "E/G#"GE zC|"F#7"EE "B7"F2 "E"E4|
"E"G4"G#7"FE FE-|"C#m"E4"E7/B"z4|"A"A4"E/G#"GE GF-|"F#7"F4"B7"z3F|
"E"(3GBG- GG "G#7/D#"(3FGF-F2|"C#m"(3EGE-E2"E7/B"(3=DGD z^B,|
"A"CE FE "E/G#"GE zC|"F#7"EE "B7"F2 "E"E4|
